findly-builder/apps/searchassist/src/assets/icons/resultranking/data-icon.svg

<svg width="16" height="16" viewBox="0 0 16 16" fill="none" xmlns="http://www.w3.org/2000/svg">
<path d="M2.5 1C1.67578 1 1 1.67578 1 2.5V10.5C1 11.3242 1.67578 12 2.5 12H4V12.5C4 13.3242 4.67578 14 5.5 14H13.5C14.3242 14 15 13.3242 15 12.5V4.5C15 3.67578 14.3242 3 13.5 3H12V2.5C12 1.67578 11.3242 1 10.5 1H2.5ZM2.5 2H10.5C10.7812 2 11 2.21875 11 2.5V10.5C11 10.7812 10.7812 11 10.5 11H2.5C2.21875 11 2 10.7812 2 10.5V2.5C2 2.21875 2.21875 2 2.5 2ZM12 4H13.5C13.7812 4 14 4.21875 14 4.5V12.5C14 12.7812 13.7812 13 13.5 13H5.5C5.21875 13 5 12.7812 5 12.5V12H10.5C11.3242 12 12 11.3242 12 10.5V4Z" fill="#9AA0A6"/>
<path d="M7 4H11V5H7C6.72386 5 6.5 4.77614 6.5 4.5C6.5 4.22386 6.72386 4 7 4Z" fill="#9AA0A6"/>
<path d="M4.5 4H2V5H4.5C4.77614 5 5 4.77614 5 4.5C5 4.22386 4.77614 4 4.5 4Z" fill="#9AA0A6"/>
<path d="M7 8H11V9H7C6.72386 9 6.5 8.77614 6.5 8.5C6.5 8.22386 6.72386 8 7 8Z" fill="#9AA0A6"/>
<path d="M4.5 8H2V9H4.5C4.77614 9 5 8.77614 5 8.5C5 8.22386 4.77614 8 4.5 8Z" fill="#9AA0A6"/>
</svg>

<svg width="16" height="16" fill="none" xmlns="http://www.w3.org/2000/svg"><path d="M2.5 1C1.676 1 1 1.676 1 2.5v8c0 .824.676 1.5 1.5 1.5H4v.5c0 .824.676 1.5 1.5 1.5h8c.824 0 1.5-.676 1.5-1.5v-8c0-.824-.676-1.5-1.5-1.5H12v-.5c0-.824-.676-1.5-1.5-1.5h-8Zm0 1h8c.281 0 .5.219.5.5v8c0 .281-.219.5-.5.5h-8a.494.494 0 0 1-.5-.5v-8c0-.281.219-.5.5-.5ZM12 4h1.5c.281 0 .5.219.5.5v8c0 .281-.219.5-.5.5h-8a.494.494 0 0 1-.5-.5V12h5.5c.824 0 1.5-.676 1.5-1.5V4Z" fill="#9AA0A6"/><path d="M7 4h4v1H7a.5.5 0 0 1 0-1ZM4.5 4H2v1h2.5a.5.5 0 0 0 0-1ZM7 8h4v1H7a.5.5 0 0 1 0-1ZM4.5 8H2v1h2.5a.5.5 0 0 0 0-1Z" fill="#9AA0A6"/></svg>
